packages/foundations/assets/icons/functional/images/audio & video/subtitles_20.svg

<svg xmlns="http://www.w3.org/2000/svg" width="20" height="20" fill="none"><g clip-path="url(#a)"><path fill="#1A1C1F" fill-rule="evenodd" d="M16 4c1.125 0 2 .906 2 2v8c0 1.094-.875 2-2 2H4c-1.094 0-2-.906-2-2V6c0-1.094.906-2 2-2zm0 2H4v8h12zM6 13v-2h4v2zm6 0v-2h2v2z" clip-rule="evenodd"/></g><defs><clipPath id="a"><path fill="#fff" d="M0 0h20v20H0z"/></clipPath></defs></svg>

<svg width="20" height="20" viewBox="0 0 20 20" fill="none" xmlns="http://www.w3.org/2000/svg">
<g clip-path="url(#clip0_184_414)">
<path fill-rule="evenodd" clip-rule="evenodd" d="M16 4C17.125 4 18 4.906 18 6V14C18 15.094 17.125 16 16 16H4C2.906 16 2 15.094 2 14V6C2 4.906 2.906 4 4 4H16ZM16 6H4V14H16V6ZM6 13V11H10V13H6ZM12 13V11H14V13H12Z" fill="#1A1C1F"/>
</g>
<defs>
<clipPath id="clip0_184_414">
<rect width="20" height="20" fill="white"/>
</clipPath>
</defs>
</svg>
